svg/u1f481_1f3fc_200d_2640.svg

<svg viewBox="0 0 128 128" xmlns="http://www.w3.org/2000/svg">
  <g id="hairGroup_1_">
    <path id="hair_10_" d="M48.81,5.63C8.26,5.63,8.45,42.31,8.45,42.9c-0.09,23.89,1.66,57.82,11.43,71.23 c3.88,5.32,11.41,5.62,11.41,5.62l16.96-0.03l16.96,0.03c0,0,7.53-0.29,11.41-5.62c9.77-13.41,11.52-47.34,11.43-71.23 C88.03,42.31,89.36,5.63,48.81,5.63z" fill="#AB872F"/>
    <radialGradient id="hairHighlights_2_" cx="50.7938" cy="68.2346" gradientTransform="matrix(1.015 0 0 -1.1901 -3.313 140.9692)" gradientUnits="userSpaceOnUse" r="46.353">
      <stop offset="0.7936" stop-color="#BFA055" stop-opacity="0"/>
      <stop offset="1" stop-color="#BFA055"/>
    </radialGradient>
    <path id="hairHighlights_1_" d="M48.81,5.63C8.26,5.63,8.45,42.31,8.45,42.9 c-0.09,23.89,1.66,57.82,11.43,71.23c3.88,5.32,11.41,5.62,11.41,5.62l16.96-0.03l16.96,0.03c0,0,7.53-0.29,11.41-5.62 c9.77-13.41,11.52-47.34,11.43-71.23C88.03,42.31,89.36,5.63,48.81,5.63z" fill="url(#hairHighlights_2_)"/>
  </g>
  <g id="shirt">
    <linearGradient id="shirt_x5F_fill_1_" gradientTransform="matrix(1 0 0 -1 0 128)" gradientUnits="userSpaceOnUse" x1="50.127" x2="50.127" y1="32.0001" y2="4">
      <stop offset="0" stop-color="#651FFF"/>
      <stop offset="0.7047" stop-color="#5914F2"/>
      <stop offset="1" stop-color="#530EEB"/>
    </linearGradient>
    <path id="shirt_x5F_fill" d="M96.25,124v-2.88c0-16.68-23.56-25.15-47.63-25.12 c-18.3,0.02-36.88,4.38-44.62,14.32V124H96.25z" fill="url(#shirt_x5F_fill_1_)"/>
  </g>
  <g id="neck">
    <path d="M38.93,88.95v9.98c0,4.51,3.7,8.17,8.26,8.17h1.65c4.56,0,8.26-3.66,8.26-8.17v-9.98 C57.1,88.95,38.93,88.95,38.93,88.95z" fill="#C48E6A"/>
  </g>
  <path id="head" d="M48.25,96.27L48.25,96.27L48.25,96.27c17.4,0,33.52-18.61,33.52-45.4 c0-26.64-16.61-39.81-33.52-39.81S14.73,24.24,14.73,50.88C14.73,77.66,30.85,96.27,48.25,96.27z" fill="#E0BB95"/>
  <g id="eyes">
    <ellipse cx="31.82" cy="58.81" fill="#5D4037" rx="4.93" ry="5.1"/>
    <ellipse cx="64.69" cy="58.81" fill="#5D4037" rx="4.93" ry="5.1"/>
  </g>
  <path id="mouth" d="M56.67,76.14c-3.19,1.89-13.63,1.89-16.81,0c-1.83-1.09-3.7,0.58-2.94,2.24 c0.75,1.63,6.44,5.42,11.37,5.42s10.55-3.79,11.3-5.42C60.35,76.72,58.5,75.05,56.67,76.14z" fill="#6D4C41"/>
  <path id="nose" d="M52.11,68.06c-0.11-0.04-0.21-0.07-0.32-0.08h-7.08c-0.11,0.01-0.22,0.04-0.32,0.08 c-0.64,0.26-0.99,0.92-0.69,1.63c0.3,0.71,1.71,2.69,4.55,2.69s4.25-1.99,4.55-2.69C53.11,68.98,52.75,68.32,52.11,68.06z" fill="#C48E6A"/>
  <g id="hairGroup">
    <path id="hair_5_" d="M48.81,5.63C8.26,5.63,8.45,42.31,8.45,42.9c-0.03,7.53,0.13,16.07,0.66,24.64 l6.68-0.02c-0.05-2.84,2.03-20.41,8.09-21.74C46.07,40.9,58.6,29.41,58.6,29.41c3.27,6.96,13.48,13.76,17.16,16.35 c3.02,2.12,3.98,18.04,3.94,21.78h7.66c0-0.05,0.02-0.1,0.02-0.15c0.52-8.52,0.68-17,0.65-24.49C88.03,42.31,89.36,5.63,48.81,5.63 z" fill="#AB872F"/>
    <radialGradient id="hairHighlights_3_" cx="51.1203" cy="64.5915" gradientTransform="matrix(1.015 0 0 -1.2135 -3.313 141.7934)" gradientUnits="userSpaceOnUse" r="48.6665">
      <stop offset="0.7945" stop-color="#BFA055" stop-opacity="0"/>
      <stop offset="1" stop-color="#BFA055"/>
    </radialGradient>
    <path id="hairHighlights" d="M48.81,5.63C8.26,5.63,8.45,42.31,8.45,42.9 c-0.03,7.53,0.13,16.07,0.66,24.64l6.68-0.02c-0.05-2.84,2.03-20.41,8.09-21.74C46.07,40.9,58.6,29.41,58.6,29.41 c3.27,6.96,13.48,13.76,17.16,16.35c3.02,2.12,3.98,18.04,3.94,21.78h7.66c0-0.05,0.02-0.1,0.02-0.15c0.52-8.52,0.68-17,0.65-24.49 C88.03,42.31,89.36,5.63,48.81,5.63z" fill="url(#hairHighlights_3_)"/>
  </g>
  <g id="shadow_x5F_shirt" opacity="0.28">
    <linearGradient id="SVGID_1_" gradientTransform="matrix(1 0 0 -1 0 128)" gradientUnits="userSpaceOnUse" x1="79.3152" x2="71.6077" y1="14.5343" y2="16.1769">
      <stop offset="0.2651" stop-color="#262626"/>
      <stop offset="1" stop-color="#262626" stop-opacity="0"/>
    </linearGradient>
    <path d="M81.54,102.67c-1.62-1.42-7.23-3.04-7.23-3.04L68.83,124h9.5L81.54,102.67z" fill="url(#SVGID_1_)"/>
  </g>
  <linearGradient id="hand_1_" gradientTransform="matrix(1 0 0 -1 0 128)" gradientUnits="userSpaceOnUse" x1="108.1645" x2="100.1645" y1="64.1345" y2="52.8845">
    <stop offset="0.5" stop-color="#E0BB95"/>
    <stop offset="1" stop-color="#CCA47A"/>
  </linearGradient>
  <path id="hand" d="M91.32,74.16c2.6,0.2,6.29,0.95,8.14,0.64c1.64-0.27,2-1.82,3.71-2.21 c3.62-0.82,18.26-4.12,19.78-4.49c2.14-0.53,2.89-4.53-1.67-5.28C116.76,62.07,107.4,64,107.4,64s0.5-1.43,0.15-2.38 c-0.88-2.29-3.87-1.52-5.65-1.1l-10.56,2.99C85.9,65.38,86.16,73.9,91.32,74.16z" fill="url(#hand_1_)"/>
  <g id="shirt_x5F_sleeve_x5F_right">
    <linearGradient id="sleeve_x5F_fill_1_" gradientTransform="matrix(1 0 0 -1 0 128)" gradientUnits="userSpaceOnUse" x1="90.0475" x2="90.0475" y1="55.8966" y2="10.657">
      <stop offset="0" stop-color="#651FFF"/>
      <stop offset="0.7047" stop-color="#5914F2"/>
      <stop offset="1" stop-color="#530EEB"/>
    </linearGradient>
    <path id="sleeve_x5F_fill" d="M102.6,73.69c-0.03-0.9-0.73-1.63-1.63-1.69l-12.72-0.76 c-0.93-0.07-1.75,0.61-1.86,1.54L75.58,124h28.93L102.6,73.69z" fill="url(#sleeve_x5F_fill_1_)"/>
  </g>
  <g id="eyebrows">
    <path d="M39.24,49.82c-0.93-1.23-3.07-3.01-7.23-3.01s-6.31,1.79-7.23,3.01c-0.41,0.54-0.31,1.17-0.02,1.55 c0.26,0.35,1.04,0.68,1.9,0.39s2.54-1.16,5.35-1.18c2.81,0.02,4.49,0.89,5.35,1.18c0.86,0.29,1.64-0.03,1.9-0.39 C39.54,50.99,39.65,50.36,39.24,49.82z" fill="#AB872F"/>
    <path d="M71.73,49.82c-0.93-1.23-3.07-3.01-7.23-3.01s-6.31,1.79-7.23,3.01c-0.41,0.54-0.31,1.17-0.02,1.55 c0.26,0.35,1.04,0.68,1.9,0.39s2.54-1.16,5.35-1.18c2.81,0.02,4.49,0.89,5.35,1.18c0.86,0.29,1.64-0.03,1.9-0.39 C72.04,50.99,72.14,50.36,71.73,49.82z" fill="#AB872F"/>
  </g>
</svg>

<svg viewBox="0 0 128 128" xmlns="http://www.w3.org/2000/svg">
  <defs>
    <linearGradient id="SVGID_1_" gradientTransform="matrix(1 0 0 -1 0 0)" gradientUnits="userSpaceOnUse" x1="79.3152" x2="71.6077" y1="-113.4657" y2="-111.8231">
      <stop offset="0.2651" stop-color="#262626"/>
      <stop offset="1" stop-color="#262626" stop-opacity="0"/>
    </linearGradient>
    <radialGradient id="hairHighlights_2_" cx="47.529761" cy="-50.216959" gradientTransform="matrix(1.015 0 0 -1.1901 0 0)" gradientUnits="userSpaceOnUse" r="46.353">
      <stop offset="0.7936" stop-color="#BFA055" stop-opacity="0"/>
      <stop offset="1" stop-color="#BFA055"/>
    </radialGradient>
    <radialGradient id="hairHighlights_3_" cx="47.856261" cy="-52.255142" gradientTransform="matrix(1.015 0 0 -1.2135 0 0)" gradientUnits="userSpaceOnUse" r="48.6665">
      <stop offset="0.7945" stop-color="#BFA055" stop-opacity="0"/>
      <stop offset="1" stop-color="#BFA055"/>
    </radialGradient>
    <linearGradient id="hand_1_" gradientTransform="matrix(1 0 0 -1 0 0)" gradientUnits="userSpaceOnUse" x1="108.1645" x2="100.1645" y1="-63.8655" y2="-75.1155">
      <stop offset="0.5" stop-color="#E0BB95"/>
      <stop offset="1" stop-color="#CCA47A"/>
    </linearGradient>
    <linearGradient id="shirt_x5F_fill_1_" gradientTransform="matrix(1 0 0 -1 0 0)" gradientUnits="userSpaceOnUse" x1="50.127" x2="50.127" y1="-95.9999" y2="-124">
      <stop offset="0" stop-color="#651FFF"/>
      <stop offset="0.7047" stop-color="#5914F2"/>
      <stop offset="1" stop-color="#530EEB"/>
    </linearGradient>
    <linearGradient id="sleeve_x5F_fill_1_" gradientTransform="matrix(1 0 0 -1 0 0)" gradientUnits="userSpaceOnUse" x1="90.0475" x2="90.0475" y1="-72.1034" y2="-117.343">
      <stop offset="0" stop-color="#651FFF"/>
      <stop offset="0.7047" stop-color="#5914F2"/>
      <stop offset="1" stop-color="#530EEB"/>
    </linearGradient>
  </defs>
  <path id="hair_10_" d="M48.81,5.63 C8.26,5.63 8.45,42.31 8.45,42.9 C8.36,66.79 10.11,100.72 19.88,114.13 C23.76,119.45 31.29,119.75 31.29,119.75 L48.25,119.72 L65.21,119.75 C65.21,119.75 72.74,119.46 76.62,114.13 C86.39,100.72 88.14,66.79 88.05,42.9 C88.03,42.31 89.36,5.63 48.81,5.63 Z" fill="#AB872F"/>
  <path id="hairHighlights_1_" d="M48.81,5.63 C8.26,5.63 8.45,42.31 8.45,42.9 C8.36,66.79 10.11,100.72 19.88,114.13 C23.76,119.45 31.29,119.75 31.29,119.75 L48.25,119.72 L65.21,119.75 C65.21,119.75 72.74,119.46 76.62,114.13 C86.39,100.72 88.14,66.79 88.05,42.9 C88.03,42.31 89.36,5.63 48.81,5.63 Z" fill="url(#hairHighlights_2_)"/>
  <path id="shirt_x5F_fill" d="M96.25,124 L96.25,121.12 C96.25,104.44 72.69,95.97 48.62,96 C30.32,96.02 11.74,100.38 4,110.32 L4,124 L96.25,124 Z" fill="url(#shirt_x5F_fill_1_)"/>
  <path d="M38.93,88.95 L38.93,98.93 C38.93,103.44 42.63,107.1 47.19,107.1 L48.84,107.1 C53.4,107.1 57.1,103.44 57.1,98.93 L57.1,88.95 C57.1,88.95 38.93,88.95 38.93,88.95 Z" fill="#C48E6A"/>
  <path id="head" d="M48.25,96.27 L48.25,96.27 L48.25,96.27 C65.65,96.27 81.77,77.66 81.77,50.87 C81.77,24.23 65.16,11.06 48.25,11.06 C31.34,11.06 14.73,24.24 14.73,50.88 C14.73,77.66 30.85,96.27 48.25,96.27 Z" fill="#E0BB95"/>
  <path d="M36.75,58.81 A4.93 5.1 0 1 1 26.89,58.81 A4.93 5.1 0 1 1 36.75,58.81 Z" fill="#5D4037"/>
  <path d="M69.62,58.81 A4.93 5.1 0 1 1 59.76,58.81 A4.93 5.1 0 1 1 69.62,58.81 Z" fill="#5D4037"/>
  <path id="mouth" d="M56.67,76.14 C53.48,78.03 43.04,78.03 39.86,76.14 C38.03,75.05 36.16,76.72 36.92,78.38 C37.67,80.01 43.36,83.8 48.29,83.8 C53.22,83.8 58.84,80.01 59.59,78.38 C60.35,76.72 58.5,75.05 56.67,76.14 Z" fill="#6D4C41"/>
  <path id="nose" d="M52.11,68.06 C52,68.02 51.9,67.99 51.79,67.98 L44.71,67.98 C44.6,67.99 44.49,68.02 44.39,68.06 C43.75,68.32 43.4,68.98 43.7,69.69 C44,70.4 45.41,72.38 48.25,72.38 C51.09,72.38 52.5,70.39 52.8,69.69 C53.11,68.98 52.75,68.32 52.11,68.06 Z" fill="#C48E6A"/>
  <path id="hair_5_" d="M48.81,5.63 C8.26,5.63 8.45,42.31 8.45,42.9 C8.42,50.43 8.58,58.97 9.11,67.54 L15.79,67.52 C15.74,64.68 17.82,47.11 23.88,45.78 C46.07,40.9 58.6,29.41 58.6,29.41 C61.87,36.37 72.08,43.17 75.76,45.76 C78.78,47.88 79.74,63.8 79.7,67.54 L87.36,67.54 C87.36,67.49 87.38,67.44 87.38,67.39 C87.9,58.87 88.06,50.39 88.03,42.9 C88.03,42.31 89.36,5.63 48.81,5.63 Z" fill="#AB872F"/>
  <path id="hairHighlights" d="M48.81,5.63 C8.26,5.63 8.45,42.31 8.45,42.9 C8.42,50.43 8.58,58.97 9.11,67.54 L15.79,67.52 C15.74,64.68 17.82,47.11 23.88,45.78 C46.07,40.9 58.6,29.41 58.6,29.41 C61.87,36.37 72.08,43.17 75.76,45.76 C78.78,47.88 79.74,63.8 79.7,67.54 L87.36,67.54 C87.36,67.49 87.38,67.44 87.38,67.39 C87.9,58.87 88.06,50.39 88.03,42.9 C88.03,42.31 89.36,5.63 48.81,5.63 Z" fill="url(#hairHighlights_3_)"/>
  <path d="M81.54,102.67 C79.92,101.25 74.31,99.63 74.31,99.63 L68.83,124 L78.33,124 L81.54,102.67 Z" fill="url(#SVGID_1_)" opacity="0.28"/>
  <path id="hand" d="M91.32,74.16 C93.92,74.36 97.61,75.11 99.46,74.8 C101.1,74.53 101.46,72.98 103.17,72.59 C106.79,71.77 121.43,68.47 122.95,68.1 C125.09,67.57 125.84,63.57 121.28,62.82 C116.76,62.07 107.4,64 107.4,64 C107.4,64 107.9,62.57 107.55,61.62 C106.67,59.33 103.68,60.1 101.9,60.52 L91.34,63.51 C85.9,65.38 86.16,73.9 91.32,74.16 Z" fill="url(#hand_1_)"/>
  <path id="sleeve_x5F_fill" d="M102.6,73.69 C102.57,72.79 101.87,72.06 100.97,72 L88.25,71.24 C87.32,71.17 86.5,71.85 86.39,72.78 L75.58,124 L104.51,124 L102.6,73.69 Z" fill="url(#sleeve_x5F_fill_1_)"/>
  <path d="M39.24,49.82 C38.31,48.59 36.17,46.81 32.01,46.81 C27.85,46.81 25.7,48.6 24.78,49.82 C24.37,50.36 24.47,50.99 24.76,51.37 C25.02,51.72 25.8,52.05 26.66,51.76 C27.52,51.47 29.2,50.6 32.01,50.58 C34.82,50.6 36.5,51.47 37.36,51.76 C38.22,52.05 39,51.73 39.26,51.37 C39.54,50.99 39.65,50.36 39.24,49.82 Z" fill="#AB872F"/>
  <path d="M71.73,49.82 C70.8,48.59 68.66,46.81 64.5,46.81 C60.34,46.81 58.19,48.6 57.27,49.82 C56.86,50.36 56.96,50.99 57.25,51.37 C57.51,51.72 58.29,52.05 59.15,51.76 C60.01,51.47 61.69,50.6 64.5,50.58 C67.31,50.6 68.99,51.47 69.85,51.76 C70.71,52.05 71.49,51.73 71.75,51.37 C72.04,50.99 72.14,50.36 71.73,49.82 Z" fill="#AB872F"/>
</svg>
